X:7020
%8443
T:Kay's Mazurka 
R:mazurka
C:Jean-Marc HENRY
M:3/4
L:1/8
Q:1/4=120
K:C
EGA |: "C"G2 (4GGGG) EGc
%Error : Bar 1 is 1/1 not 3/4
|"C"e2 (4eeee) c"G"de
%Error : Bar 2 is 1/1 not 3/4
|"G"d2 (4dddd) f"C"ed
%Error : Bar 3 is 1/1 not 3/4
| [1 e2
cEGA:| [2 c3 EG
A||
|: "C"G2 (4GGGG) EGc
%Error : Bar 7 is 1/1 not 3/4
|e2 (4eeee) c"G"de
%Error : Bar 8 is 1/1 not 3/4
|d2 (4dddd) f"C"ed
%Error : Bar 9 is 1/1 not 3/4
| [1 e2 cEGA:| [2 
c3 egf||
|:"C"e2 (4eeee) c"Em"Bc
%Error : Bar 13 is 1/1 not 3/4
|"G"d2 (4dddd) c"Em"Bc
%Error : Bar 14 is 1/1 not 3/4
|"G"d2 (4dddd) f"C"ed
%Error : Bar 15 is 1/1 not 3/4
|
%Error : Guitar chord name not properly closed
 [1 "C"

%Error : Guitar chord name not properly closed
"e2 cegf:| [2 "C"c3  egf||"

%Error : Expecting repeat, found |:
|:"C"e2 (4eeee) c"Em"Bc
%Error : Bar 17 is 9/8 not 3/4
|"G"d2 (4dddd) c"Em"Bc
%Error : Bar 18 is 1/1 not 3/4
|"G"d2 (4dddd) f"C"ed
%Error : Bar 19 is 1/1 not 3/4
|
%Error : Guitar chord name not properly closed
 [1 "C"

%Error : Guitar chord name not properly closed
"e2  cegf:|[2  c3 ||"


